packages/icons/src/circle-thunder-fill.svg

<svg width="24" height="24" viewBox="0 0 24 24" fill="none" xmlns="http://www.w3.org/2000/svg">
<path fill-rule="evenodd" clip-rule="evenodd" d="M12 2C17.52 2 22 6.48 22 12C22 17.52 17.52 22 12 22C6.48 22 2 17.52 2 12C2 6.48 6.48 2 12 2ZM12.6821 6C12.574 6.0094 12.4736 6.05457 12.4019 6.12651L12.3539 6.18534L8.05756 12.6915L8.01822 12.7708C7.97 12.9103 8.01928 13.0633 8.14479 13.1601L8.2138 13.2035L8.28157 13.2312L8.35353 13.2481L8.42804 13.2538L11.5564 13.2537L10.852 17.5722L10.8493 17.6587C10.8664 17.8281 11.0145 17.9711 11.2151 17.9962C11.3592 18.0142 11.5017 17.9668 11.5958 17.8739L11.6461 17.8128L15.9424 11.3067L15.9818 11.2274C16.03 11.0878 15.9807 10.9348 15.8552 10.8381L15.7862 10.7947L15.7184 10.767L15.6465 10.75L15.572 10.7443L12.4423 10.744L13.148 6.42595L13.1507 6.33948C13.136 6.19429 13.0251 6.06845 12.8674 6.01966L12.7849 6.00195L12.6821 6Z" fill="black"/>
</svg>

<svg xmlns="http://www.w3.org/2000/svg" width="24" height="24" fill="none" viewBox="0 0 24 24">
  <path fill="#000" fill-rule="evenodd" d="M12 2c5.52 0 10 4.48 10 10s-4.48 10-10 10S2 17.52 2 12 6.48 2 12 2Zm.682 4a.451.451 0 0 0-.28.127l-.048.058-4.296 6.506-.04.08a.346.346 0 0 0 .127.39l.069.043.068.027.072.017.074.006h3.128l-.704 4.318-.003.087c.017.17.165.312.366.337a.463.463 0 0 0 .38-.122l.051-.061 4.296-6.506.04-.08a.346.346 0 0 0-.127-.389l-.069-.043-.068-.028-.072-.017-.074-.006h-3.13l.706-4.318.003-.087a.387.387 0 0 0-.284-.32l-.082-.017L12.682 6Z" clip-rule="evenodd"/>
</svg>
